!!!OTL: ICH NEHM MEIN GLAESCHEN IN DIE HAND
!!!ARE: Europa, Mitteleuropa, Deutschland
!!!SCT: F0528
!!!YEM: Copyright 1995, estate of Helmut Schaffrath.
**kern
*ICvox
*Ivox
*M2/4
*k[f#]
*G:
{8d
=1
8g
8a
8b
8cc
=2
8dd
8dd
4dd}
=3
{8ee
8cc
8gg
8ee
=4
8ee
8dd
4dd}
=5
{8ee
8cc
8gg
8ee
=6
8ee
8dd
8dd}
{8dd
=7
8dd
8cc
8cc
8cc
=8
8cc
8b
4b}
=9
{8a
8ee
8dd
8a
=10
8cc
8b
4b}
=11
{8a
8ee
8dd
8f#
=12
8a
8g
4g}
=13
{8ee
8cc
8gg
8ee
=14
8ee
8dd
4dd}
=15
{8cc
8a
8dd
8cc
=16
8cc
8b
4b}
=17
{8a
8ff#
8ff#
8ff#
=18
4gg
4g}
=19
{8ee
8cc
8gg
8ee
=20
8ee
8dd
4dd}
=21
{8cc
8a
8dd
8cc
=22
8cc
8b
4b}
=23
{8a
8ff#
8ff#
8ff#
=24
4gg
8g}
==
!!!AGN: Studenten -, Trink - Lied
!!!ONB: ESAC (Essen Associative Code) Database: FINK
!!!AMT: simple duple
!!!AIN: vox
!!!EED: Helmut Schaffrath
!!!EEV: 1.0
*-
